frontend/public/svg/interface/send-2.svg

<svg width="116" height="110" viewBox="0 0 116 110" fill="none" xmlns="http://www.w3.org/2000/svg">
<g clip-path="url(#clip0)">
<path d="M1.32922 50.3838C1.5056 39.0603 1.72398 24.1133 1.99339 9.1708C2.04507 7.62646 2.238 6.09019 2.5697 4.58118C3.37276 0.654175 5.32582 -0.401112 9.01357 1.2353C13.8591 3.38483 18.6019 5.75436 23.4409 7.91492C43.2946 16.7796 63.0972 25.7665 83.0726 34.3536C90.7569 37.6575 98.8476 40.0128 106.75 42.8074C108.101 43.285 109.464 43.7483 110.779 44.3093C111.554 44.6153 112.251 45.0944 112.814 45.7103C113.377 46.3262 113.793 47.0628 114.03 47.8637C114.191 48.3904 114.288 48.9429 114.497 49.4489C116.317 53.8386 116.075 55.1676 111.963 57.6018C101.324 63.9054 90.66 70.1761 79.8649 76.2061C61.33 86.5105 42.2796 95.8566 22.789 104.208C18.2401 106.168 13.421 107.504 8.71832 109.098C8.08892 109.307 7.43309 109.426 6.7704 109.452C4.64872 109.537 3.68544 108.854 3.39342 106.711C2.81393 103.117 2.42961 99.4931 2.24213 95.8566C1.86547 81.9119 1.66389 67.9606 1.32922 50.3838ZM12.1018 100.402C41.2998 87.3517 69.7242 72.6304 97.2344 56.3116C94.5474 56.3116 92.5129 56.2107 90.4914 56.3304C84.5398 56.6817 78.5934 57.1165 72.6451 57.5254C64.273 58.1007 55.9071 58.7937 47.5276 59.233C35.8493 59.8451 24.1903 61.3639 12.4597 60.2076C12.0217 60.2474 11.5898 60.337 11.1721 60.4749C11.4764 73.5894 11.782 86.6878 12.1018 100.404V100.402ZM11.1469 52.5897C12.6089 52.6739 13.6976 52.8238 14.7797 52.7837C21.0647 52.5508 27.3619 52.4537 33.6294 51.9743C48.927 50.8031 64.2103 49.4508 79.4998 48.1657C83.1824 47.8564 86.8611 47.5264 90.5418 47.2068C63.1075 36.2171 36.8688 22.9214 9.79337 10.5671C9.98009 24.8981 10.4879 38.6566 11.1469 52.5923V52.5897Z" fill="black"/>
</g>
<defs>
<clipPath id="clip0">
<rect width="115" height="110" fill="white" transform="translate(0.777344)"/>
</clipPath>
</defs>
</svg>

<svg xmlns="http://www.w3.org/2000/svg" width="116" height="110" fill="none" viewBox="0 0 116 110"><g clip-path="url(#a)"><path fill="#000" d="M1.33 50.384c.176-11.324.394-26.27.663-41.213.052-1.545.245-3.08.577-4.59C3.373.654 5.326-.4 9.014 1.235c4.845 2.15 9.588 4.52 14.427 6.68 19.854 8.865 39.656 17.851 59.632 26.439 7.684 3.303 15.775 5.659 23.677 8.453 1.351.478 2.714.941 4.029 1.502a5.49 5.49 0 0 1 3.251 3.555c.161.526.258 1.079.467 1.585 1.82 4.39 1.578 5.719-2.534 8.153-10.639 6.303-21.303 12.574-32.098 18.604a620 620 0 0 1-57.076 28.002c-4.549 1.96-9.368 3.296-14.07 4.89a7 7 0 0 1-1.949.354c-2.121.085-3.085-.598-3.377-2.741-.58-3.594-.963-7.218-1.15-10.854-.378-13.945-.58-27.896-.914-45.473m10.772 50.018a834 834 0 0 0 85.132-44.09c-2.687 0-4.721-.101-6.743.018-5.951.352-11.898.787-17.846 1.195-8.372.576-16.738 1.269-25.117 1.708-11.679.612-23.338 2.13-35.068.975q-.659.06-1.288.267c.304 13.114.61 26.213.93 39.929zm-.955-47.812c1.462.084 2.55.234 3.633.194 6.285-.233 12.582-.33 18.85-.81 15.297-1.17 30.58-2.523 45.87-3.808 3.682-.31 7.361-.64 11.042-.96C63.108 36.218 36.869 22.922 9.793 10.568c.187 14.331.695 28.09 1.354 42.025z"/></g><defs><clipPath id="a"><path fill="#fff" d="M.777 0h115v110h-115z"/></clipPath></defs></svg>
